X:1
T:Pretty Saro
L:1/4
M:3/4
I:linebreak $
K:Bb
V:1 treble 
V:1
 (F/G/) | B c (B/c/) | d c (d/c/) | B F G/G/ | F2 (F/G/) | B/B/ B c | d f (g/f/) |$ d c (B/d/) | %8
w: I *|came to this *|coun- try in *|eigh- teen for- ty|nine I *|saw so ma- ny|las- ses but *|ne- ver saw *|
 c2 B | c !fermata!f (f/d/) c B c | d F (B/G/) | F2 F | B c (c/B/) |$ d c (d/c/) | B F G | F2 |] %16
w: mine I|viewed all a- * round me and|saw I was a-|lone And|me a poor *|sol- dier and *|far from my|home|
